ZUCCAL
CUT["Grenze des Wissens"
    FISCH IM SEE FINK IM STRAUCH]
REG[Europa, Mitteleuropa, Steiermark]
KEY[Z1212  08  F 3/4]
MEL[1_3-513  5_4-5-7_
    -5_-7246  6_531_
    1_3-513  5_4-5-7_
    -7_755-7  1__0_ //] >>
FCT[Liebes - Lied]
